dist/styles/ag-theme-alpine/icons/pin.svg

<!-- Generated by IcoMoon.io -->
<svg version="1.1" xmlns="http://www.w3.org/2000/svg" width="32" height="32" viewBox="0 0 32 32">
<title>pin</title>
<path d="M10.78 19.777l-4.668-4.666c0 0 0.032-1 0.67-1.87 1.366-1.86 4.052-1.96 6.056-1.572l3.158-3.108c-0.7-2.342 3.352-5.046 3.352-5.046 3.054 3.056 6.11 6.112 9.166 9.168-0.222 0.298-0.446 0.596-0.67 0.894-1.074 1.426-2.538 2.63-4.272 2.338l-3.32 3.218c0.046 0.344 0.042 0.030 0.118 1.152 0.144 2.13-0.64 4.324-2.632 5.34l-0.746 0.364-4.798-4.798-7.292 7.294-1.416-1.416 7.294-7.292zM19.020 6.105c-0.688 0.568-1.416 1.45-1.024 2.072l0.49 0.722-4.986 4.988c-1.988-0.506-4.346-0.636-5.156 0.614l9.020 9.032c0.094-0.066 0.184-0.136 0.272-0.21 1.226-1.080 0.764-3.040 0.498-4.9l4.79-4.79c0 0 1.47 0.938 2.936-0.776l-6.79-6.79c-0.018 0.012-0.034 0.026-0.050 0.038z"></path>
</svg>

<?xml version="1.0" encoding="UTF-8" standalone="no"?>
<!DOCTYPE svg PUBLIC "-//W3C//DTD SVG 1.1//EN" "http://www.w3.org/Graphics/SVG/1.1/DTD/svg11.dtd">
<svg width="100%" height="100%" viewBox="0 0 32 32" version="1.1" xmlns="http://www.w3.org/2000/svg" xmlns:xlink="http://www.w3.org/1999/xlink" xml:space="preserve" xmlns:serif="http://www.serif.com/" style="fill-rule:evenodd;clip-rule:evenodd;stroke-linejoin:round;stroke-miterlimit:2;">
    <path id="pin" d="M10.78,19.777L6.112,15.111C6.112,15.111 6.144,14.111 6.782,13.241C8.148,11.381 10.834,11.281 12.838,11.669L15.996,8.561C15.296,6.219 19.348,3.515 19.348,3.515C22.402,6.571 25.458,9.627 28.514,12.683C28.292,12.981 28.068,13.279 27.844,13.577C26.77,15.003 25.306,16.207 23.572,15.915L20.252,19.133C20.298,19.477 20.294,19.163 20.37,20.285C20.514,22.415 19.73,24.609 17.738,25.625L16.992,25.989L12.194,21.191L4.902,28.485L3.486,27.069L10.78,19.777ZM19.02,6.105C18.332,6.673 17.604,7.555 17.996,8.177L18.486,8.899L13.5,13.887C11.512,13.381 9.154,13.251 8.344,14.501L17.364,23.533C17.458,23.467 17.548,23.397 17.636,23.323C18.862,22.243 18.4,20.283 18.134,18.423L22.924,13.633C22.924,13.633 24.394,14.571 25.86,12.857L19.07,6.067C19.052,6.079 19.036,6.093 19.02,6.105Z" style="fill-rule:nonzero;"/>
</svg>
